img/home-mode.svg

<svg width="45" height="45" viewBox="0 0 45 45" fill="none" xmlns="http://www.w3.org/2000/svg">
<path d="M3.94257 6.13601C3.51998 5.26247 3.88543 4.21178 4.75897 3.78928C5.04409 3.65137 5.34773 3.59878 5.6426 3.61897C5.9207 3.00071 6.40896 2.47295 7.0669 2.15465C8.55414 1.43508 10.3431 2.05747 11.0627 3.54471C11.2366 3.90419 11.3315 4.28131 11.3552 4.65658C12.0191 4.63446 12.6652 4.99613 12.9732 5.63248C13.3898 6.49356 13.0296 7.52924 12.1684 7.94586C11.3864 8.32421 10.4619 8.06024 9.98643 7.36385C9.88653 7.42793 9.78224 7.48727 9.67269 7.54038C8.4969 8.10923 7.133 7.83876 6.25753 6.96584C5.39049 7.36473 4.36016 6.99893 3.94257 6.13601Z" fill="url(#paint0_linear_2_483)"/>
<path d="M4.38438 2.93673C5.19534 2.93673 5.85275 2.27932 5.85275 1.46837C5.85275 0.65741 5.19534 0 4.38438 0C3.57343 0 2.91602 0.65741 2.91602 1.46837C2.91602 2.27932 3.57343 2.93673 4.38438 2.93673Z" fill="url(#paint1_linear_2_483)"/>
<path d="M13.1075 14.7783H9.56603C9.06486 14.7783 8.6586 14.372 8.6586 13.8708V8.222C8.6586 7.72084 9.06486 7.31458 9.56603 7.31458H13.1075C13.6087 7.31458 14.0149 7.72084 14.0149 8.222V13.8708C14.015 14.372 13.6088 14.7783 13.1075 14.7783Z" fill="url(#paint2_linear_2_483)"/>
<path d="M11.9855 30.885H1.41006V44.4568H11.9855V30.885Z" fill="url(#paint3_linear_2_483)"/>
<path d="M12.4261 33.7929H1.43378C0.983358 33.7929 0.660926 33.358 0.791637 32.9269L1.88244 29.3338C1.9683 29.051 2.22902 28.8578 2.52458 28.8578H12.4262V33.7929H12.4261Z" fill="url(#paint4_linear_2_483)"/>
<path d="M43.5355 30.885H32.9601V44.4568H43.5355V30.885Z" fill="url(#paint5_linear_2_483)"/>
<path d="M43.5354 40.901L36.4301 33.7955H32.9601V44.4565H43.5354V40.901Z" fill="url(#paint6_linear_2_483)"/>
<path d="M32.5194 33.7929H43.5117C43.9621 33.7929 44.2846 33.358 44.1539 32.9269L43.0631 29.3338C42.9772 29.051 42.7165 28.8578 42.4209 28.8578H32.5194V33.7929Z" fill="url(#paint7_linear_2_483)"/>
<path d="M36.4358 16.3768V44.4562H8.51321V16.3768L22.4727 2.69043L36.4358 16.3768Z" fill="url(#paint8_linear_2_483)"/>
<path d="M8.51321 16.3768V17.9855L34.9839 44.4562H36.4358V16.3768L22.4727 2.69043L8.51321 16.3768Z" fill="url(#paint9_linear_2_483)"/>
<path d="M36.4358 24.863V44.4565H27.6203L8.51321 25.3494V24.863H36.4358Z" fill="url(#paint10_linear_2_483)"/>
<path d="M32.1214 44.4564H18.4653L10.9585 36.9497C10.628 36.7354 10.4081 36.3636 10.4081 35.9419V29.9001C10.4081 29.2382 10.947 28.6993 11.6089 28.6993H15.9647C16.3874 28.6993 16.7592 28.9193 16.9734 29.2497L16.9408 29.2756L32.1214 44.4564Z" fill="url(#paint11_linear_2_483)"/>
<path d="M15.9647 36.4388H11.6093C11.3346 36.4388 11.112 36.2162 11.112 35.9415V29.9006C11.112 29.6259 11.3347 29.4033 11.6093 29.4033H15.9647C16.2394 29.4033 16.462 29.626 16.462 29.9006V35.9415C16.4621 36.2162 16.2394 36.4388 15.9647 36.4388Z" fill="#503837"/>
<path d="M15.9647 37.1428H11.6093C10.947 37.1428 10.4081 36.6039 10.4081 35.9416V29.9007C10.4081 29.2384 10.947 28.6995 11.6093 28.6995H15.9647C16.627 28.6995 17.1659 29.2384 17.1659 29.9007V35.9416C17.166 36.6039 16.6271 37.1428 15.9647 37.1428ZM11.816 35.7348H15.7581V30.1073H11.816V35.7348Z" fill="white"/>
<path d="M36.4368 31.1914V44.4564H36.0083L28.5015 36.9497C28.17 36.7354 27.95 36.3636 27.95 35.9419V29.9001C27.95 29.2382 28.489 28.6993 29.1518 28.6993H33.5066C33.9293 28.6993 34.3011 28.9193 34.5153 29.2497L34.5326 29.2633L34.521 29.2758L36.4368 31.1914Z" fill="url(#paint12_linear_2_483)"/>
<path d="M33.507 36.4388H29.1516C28.8769 36.4388 28.6543 36.2162 28.6543 35.9415V29.9006C28.6543 29.6259 28.8769 29.4033 29.1516 29.4033H33.507C33.7817 29.4033 34.0043 29.626 34.0043 29.9006V35.9415C34.0044 36.2162 33.7817 36.4388 33.507 36.4388Z" fill="#503837"/>
<path d="M33.507 37.1428H29.1516C28.4893 37.1428 27.9504 36.6039 27.9504 35.9416V29.9007C27.9504 29.2384 28.4893 28.6995 29.1516 28.6995H33.507C34.1694 28.6995 34.7083 29.2384 34.7083 29.9007V35.9416C34.7083 36.6039 34.1694 37.1428 33.507 37.1428ZM29.3582 35.7348H33.3002V30.1073H29.3582V35.7348Z" fill="white"/>
<path d="M19.5651 44.4561V29.2019C19.5651 28.529 20.1105 27.9836 20.7833 27.9836H24.1662C24.839 27.9836 25.3845 28.529 25.3845 29.2019V44.4561H19.5651Z" fill="#816965"/>
<path d="M26.1049 44.4561H24.6638V29.6173C24.6638 29.1152 24.253 28.7042 23.7508 28.7042H21.1986C20.6943 28.7042 20.2855 29.113 20.2855 29.6173V44.4561H18.8445V28.6643C18.8445 27.8905 19.4718 27.2632 20.2457 27.2632H24.7037C25.4775 27.2632 26.1048 27.8905 26.1048 28.6643V44.4561H26.1049Z" fill="#503837"/>
<path d="M21.4425 34.3664C21.8054 34.3664 22.0995 34.0723 22.0995 33.7095C22.0995 33.3466 21.8054 33.0525 21.4425 33.0525C21.0797 33.0525 20.7856 33.3466 20.7856 33.7095C20.7856 34.0723 21.0797 34.3664 21.4425 34.3664Z" fill="white"/>
<path d="M36.4368 40.6117H8.51236V44.4559H36.4368V40.6117Z" fill="#654E48"/>
<path d="M8.20659 42.9539C8.20659 43.4844 8.10626 43.9907 7.92296 44.456H0.283631C0.100337 43.9907 0 43.4844 0 42.9539C0 42.4373 0.0952459 41.9434 0.269673 41.4884C0.859495 39.9453 2.35358 38.8506 4.10338 38.8506C5.85319 38.8506 7.34719 39.9453 7.9371 41.4884C8.11144 41.9435 8.20659 42.4374 8.20659 42.9539Z" fill="url(#paint13_linear_2_483)"/>
<path d="M10.8526 43.3665C10.8526 43.7513 10.7798 44.1185 10.6469 44.4561H5.10515C4.97225 44.1186 4.89948 43.7513 4.89948 43.3665C4.89948 42.9917 4.96856 42.6335 5.09515 42.3034C5.52301 41.184 6.60679 40.3899 7.87615 40.3899C9.14551 40.3899 10.2293 41.184 10.6572 42.3034C10.7835 42.6334 10.8526 42.9917 10.8526 43.3665Z" fill="url(#paint14_linear_2_483)"/>
<path d="M44.9455 42.7051C44.9455 43.3235 44.8285 43.9137 44.6149 44.4561H35.7097C35.4962 43.9138 35.3791 43.3235 35.3791 42.7051C35.3791 42.1029 35.4902 41.5273 35.6935 40.9968C36.3811 39.198 38.1226 37.9219 40.1623 37.9219C42.202 37.9219 43.9435 39.198 44.6311 40.9968C44.8344 41.5273 44.9455 42.1029 44.9455 42.7051Z" fill="url(#paint15_linear_2_483)"/>
<path d="M36.4358 20.3937V35.2759L18.4744 17.3136C18.1218 17.1013 17.8848 16.7161 17.8848 16.2755V12.901C17.8848 10.3717 19.9435 8.31396 22.4728 8.31396C23.8423 8.31396 25.0734 8.91853 25.915 9.87292L36.4358 20.3937Z" fill="url(#paint16_linear_2_483)"/>
<path d="M34.3894 18.9458H10.9179C10.3582 18.9458 9.90292 19.4011 9.90292 19.9608V24.467H10.6079V19.9608C10.6079 19.7898 10.747 19.6508 10.9179 19.6508H12.3219V24.4669H13.0269V19.6508H15.1213V24.4669H15.8263V19.6508H17.9208V24.4669H18.6258V19.6508H20.7202V24.4669H21.4252V19.6508H23.5197V24.4669H24.2247V19.6508H26.3192V24.4669H27.0242V19.6508H29.1186V24.4669H29.8236V19.6508H31.9181V24.4669H32.6231V19.6508H34.3891C34.56 19.6508 34.6991 19.7898 34.6991 19.9608V24.467H35.4041V19.9608C35.4044 19.4011 34.9491 18.9458 34.3894 18.9458Z" fill="#654E48"/>
<path d="M37.0145 23.7355V25.9959C37.0145 26.3318 36.7422 26.6042 36.4063 26.6042H8.5392C8.20325 26.6042 7.93094 26.3318 7.93094 25.9959V23.7355C7.93094 23.3995 8.20325 23.1272 8.5392 23.1272H36.4063C36.7422 23.1272 37.0145 23.3995 37.0145 23.7355Z" fill="url(#paint17_linear_2_483)"/>
<path d="M41.435 18.8248L23.4056 0.789347C22.8917 0.275458 22.0584 0.275458 21.5445 0.789347L3.51049 18.8233C3.17428 19.1595 3.17428 19.7046 3.51049 20.0408L4.27904 20.8093C4.61526 21.1455 5.16031 21.1455 5.49652 20.8093L22.2299 4.0759C22.3652 3.94062 22.5846 3.94062 22.7199 4.0759L39.4489 20.8107C39.7851 21.1469 40.3302 21.1469 40.6664 20.8107L41.4349 20.0422C41.7712 19.7061 41.7712 19.161 41.435 18.8248Z" fill="url(#paint18_linear_2_483)"/>
<path d="M23.4055 0.789303C23.1486 0.532359 22.8119 0.403931 22.475 0.403931V3.97455C22.5637 3.97455 22.6524 4.00844 22.72 4.07603L39.449 20.8109C39.7852 21.1471 40.3303 21.1471 40.6665 20.8109L41.435 20.0423C41.7712 19.7061 41.7712 19.161 41.435 18.8248L23.4055 0.789303Z" fill="url(#paint19_linear_2_483)"/>
<path d="M25.8466 16.7568H19.099C18.833 16.7568 18.6174 16.5411 18.6174 16.2752V12.9013C18.6174 10.772 20.3436 9.04578 22.4729 9.04578C24.6023 9.04578 26.3285 10.772 26.3285 12.9013V16.2752C26.3283 16.5411 26.1126 16.7568 25.8466 16.7568Z" fill="#654E48"/>
<path d="M22.4728 8.31372C19.9432 8.31372 17.8853 10.3717 17.8853 12.9012V16.275C17.8853 16.9443 18.4297 17.4887 19.099 17.4887H25.8466C26.5159 17.4887 27.0604 16.9443 27.0604 16.275V12.9012C27.0603 10.3716 25.0024 8.31372 22.4728 8.31372ZM25.5709 12.5109H23.2049V9.86531C24.4516 10.1661 25.4087 11.2163 25.5709 12.5109ZM21.7406 9.86531V12.5109H19.3746C19.5368 11.2163 20.4938 10.1661 21.7406 9.86531ZM19.3493 13.975H21.7406V16.0248H19.3493V13.975ZM23.2049 16.0248V13.975H25.5962V16.0248H23.2049Z" fill="white"/>
<defs>
<linearGradient id="paint0_linear_2_483" x1="2.24454" y1="2.82017" x2="19.5359" y2="8.83587" gradientUnits="userSpaceOnUse">
<stop stop-color="#E2EDF2"/>
<stop offset="1" stop-color="#9FC7E2"/>
</linearGradient>
<linearGradient id="paint1_linear_2_483" x1="3.90807" y1="1.30358" x2="6.45404" y2="2.18961" gradientUnits="userSpaceOnUse">
<stop stop-color="#E2EDF2"/>
<stop offset="1" stop-color="#9FC7E2"/>
</linearGradient>
<linearGradient id="paint2_linear_2_483" x1="9.90193" y1="9.61321" x2="11.6786" y2="11.389" gradientUnits="userSpaceOnUse">
<stop stop-color="#816965"/>
<stop offset="1" stop-color="#654E48"/>
</linearGradient>
<linearGradient id="paint3_linear_2_483" x1="6.69761" y1="32.6047" x2="6.69761" y2="44.6569" gradientUnits="userSpaceOnUse">
<stop stop-color="#FFE7A5"/>
<stop offset="0.966" stop-color="#FFBF5C"/>
</linearGradient>
<linearGradient id="paint4_linear_2_483" x1="6.59406" y1="29.4831" x2="6.59406" y2="33.8665" gradientUnits="userSpaceOnUse">
<stop stop-color="#FF5D00"/>
<stop offset="1" stop-color="#D54003"/>
</linearGradient>
<linearGradient id="paint5_linear_2_483" x1="38.2469" y1="32.6047" x2="38.2469" y2="44.6569" gradientUnits="userSpaceOnUse">
<stop stop-color="#FFE7A5"/>
<stop offset="0.966" stop-color="#FFBF5C"/>
</linearGradient>
<linearGradient id="paint6_linear_2_483" x1="38.0001" y1="42.0721" x2="27.0381" y2="32.3033" gradientUnits="userSpaceOnUse">
<stop stop-color="#FF5D00" stop-opacity="0"/>
<stop offset="1" stop-color="#D54003"/>
</linearGradient>
<linearGradient id="paint7_linear_2_483" x1="38.3505" y1="29.4831" x2="38.3505" y2="33.8665" gradientUnits="userSpaceOnUse">
<stop stop-color="#FF5D00"/>
<stop offset="1" stop-color="#D54003"/>
</linearGradient>
<linearGradient id="paint8_linear_2_483" x1="22.474" y1="23.8633" x2="22.474" y2="53.4288" gradientUnits="userSpaceOnUse">
<stop stop-color="#FFE7A5"/>
<stop offset="0.966" stop-color="#FFBF5C"/>
<stop offset="1" stop-color="#DB9E36"/>
</linearGradient>
<linearGradient id="paint9_linear_2_483" x1="19.4565" y1="14.1642" x2="11.3735" y2="6.0812" gradientUnits="userSpaceOnUse">
<stop stop-color="#FF5D00" stop-opacity="0"/>
<stop offset="1" stop-color="#D54003"/>
</linearGradient>
<linearGradient id="paint10_linear_2_483" x1="23.5251" y1="31.6309" x2="20.3623" y2="11.9989" gradientUnits="userSpaceOnUse">
<stop stop-color="#FF5D00" stop-opacity="0"/>
<stop offset="1" stop-color="#D54003"/>
</linearGradient>
<linearGradient id="paint11_linear_2_483" x1="19.2266" y1="38.361" x2="6.62982" y2="25.7641" gradientUnits="userSpaceOnUse">
<stop stop-color="#FF5D00" stop-opacity="0"/>
<stop offset="1" stop-color="#D54003"/>
</linearGradient>
<linearGradient id="paint12_linear_2_483" x1="34.6992" y1="36.2916" x2="26.6338" y2="28.2262" gradientUnits="userSpaceOnUse">
<stop stop-color="#FF5D00" stop-opacity="0"/>
<stop offset="1" stop-color="#D54003"/>
</linearGradient>
<linearGradient id="paint13_linear_2_483" x1="1.7892" y1="40.3995" x2="6.8526" y2="45.4623" gradientUnits="userSpaceOnUse">
<stop stop-color="#9EB644"/>
<stop offset="1" stop-color="#738611"/>
</linearGradient>
<linearGradient id="paint14_linear_2_483" x1="6.19716" y1="41.5131" x2="9.87028" y2="45.1863" gradientUnits="userSpaceOnUse">
<stop stop-color="#9EB644"/>
<stop offset="1" stop-color="#738611"/>
</linearGradient>
<linearGradient id="paint15_linear_2_483" x1="37.4642" y1="39.7271" x2="43.3661" y2="45.6298" gradientUnits="userSpaceOnUse">
<stop stop-color="#9EB644"/>
<stop offset="1" stop-color="#738611"/>
</linearGradient>
<linearGradient id="paint16_linear_2_483" x1="28.8878" y1="20.3066" x2="15.9746" y2="7.39343" gradientUnits="userSpaceOnUse">
<stop stop-color="#FF5D00" stop-opacity="0"/>
<stop offset="1" stop-color="#D54003"/>
</linearGradient>
<linearGradient id="paint17_linear_2_483" x1="22.4723" y1="23.4976" x2="22.4723" y2="28.1102" gradientUnits="userSpaceOnUse">
<stop stop-color="#FF5D00"/>
<stop offset="1" stop-color="#D54003"/>
</linearGradient>
<linearGradient id="paint18_linear_2_483" x1="22.4723" y1="12.6034" x2="22.4723" y2="28.2626" gradientUnits="userSpaceOnUse">
<stop stop-color="#FF5D00"/>
<stop offset="1" stop-color="#D54003"/>
</linearGradient>
<linearGradient id="paint19_linear_2_483" x1="35.9408" y1="15.3836" x2="26.476" y2="5.91901" gradientUnits="userSpaceOnUse">
<stop stop-color="#FF5D00" stop-opacity="0"/>
<stop offset="1" stop-color="#D54003"/>
</linearGradient>
</defs>
</svg>

<svg xmlns="http://www.w3.org/2000/svg" xmlns:xlink="http://www.w3.org/1999/xlink" width="45" height="45" fill="none" xmlns:v="https://vecta.io/nano"><path d="M3.943 6.136c-.423-.874-.057-1.924.816-2.347.285-.138.589-.191.884-.17a2.98 2.98 0 0 1 1.424-1.464 2.99 2.99 0 0 1 3.996 1.39 2.98 2.98 0 0 1 .293 1.112 1.73 1.73 0 0 1 .813 3.289 1.73 1.73 0 0 1-2.182-.582c-.1.064-.204.123-.314.177-1.176.569-2.54.298-3.415-.575-.867.399-1.897.033-2.315-.83z" fill="url(#A)"/><path d="M4.384 2.937a1.47 1.47 0 0 0 1.468-1.468A1.47 1.47 0 0 0 4.384 0a1.47 1.47 0 0 0-1.468 1.468 1.47 1.47 0 0 0 1.468 1.468z" fill="url(#B)"/><path d="M13.108 14.778H9.566a.91.91 0 0 1-.907-.908V8.222a.91.91 0 0 1 .907-.907h3.541a.91.91 0 0 1 .907.907v5.649a.91.91 0 0 1-.907.908z" fill="url(#C)"/><path d="M11.986 30.885H1.41v13.572h10.575V30.885z" fill="url(#D)"/><path d="M12.426 33.793H1.434a.67.67 0 0 1-.642-.866l1.091-3.593a.67.67 0 0 1 .642-.476h9.902v4.935h0z" fill="url(#E)"/><path d="M43.536 30.885H32.96v13.572h10.575V30.885z" fill="url(#F)"/><path d="M43.535 40.901l-7.105-7.106h-3.47v10.661h10.575v-3.555z" fill="url(#G)"/><path d="M32.519 33.793h10.992a.67.67 0 0 0 .642-.866l-1.091-3.593a.67.67 0 0 0-.642-.476h-9.902v4.935z" fill="url(#H)"/><path d="M36.436 16.377v28.079H8.513V16.377L22.473 2.69l13.963 13.686z" fill="url(#I)"/><path d="M8.513 16.377v1.609l26.471 26.471h1.452V16.377L22.473 2.69 8.513 16.377z" fill="url(#J)"/><path d="M36.436 24.863v19.594H27.62L8.513 25.349v-.486h27.923z" fill="url(#K)"/><path d="M32.121 44.456H18.465l-7.507-7.507a1.2 1.2 0 0 1-.55-1.008V29.9c0-.662.539-1.201 1.201-1.201h4.356a1.2 1.2 0 0 1 1.009.55l-.033.026 15.181 15.181z" fill="url(#L)"/><use xlink:href="#U" fill="#503837"/><path d="M15.965 37.143h-4.355c-.662 0-1.201-.539-1.201-1.201v-6.041c0-.662.539-1.201 1.201-1.201h4.355c.662 0 1.201.539 1.201 1.201v6.041c0 .662-.539 1.201-1.201 1.201zm-4.149-1.408h3.942v-5.628h-3.942v5.628z" fill="#fff"/><path d="M36.437 31.191v13.265h-.428l-7.507-7.507a1.2 1.2 0 0 1-.552-1.008V29.9c0-.662.539-1.201 1.202-1.201h4.355a1.2 1.2 0 0 1 1.009.55l.017.014-.012.012 1.916 1.916z" fill="url(#M)"/><use xlink:href="#U" x="17.542" fill="#503837"/><path d="M33.507 37.143h-4.355c-.662 0-1.201-.539-1.201-1.201v-6.041c0-.662.539-1.201 1.201-1.201h4.355c.662 0 1.201.539 1.201 1.201v6.041c0 .662-.539 1.201-1.201 1.201zm-4.149-1.408H33.3v-5.628h-3.942v5.628z" fill="#fff"/><path d="M19.565 44.456V29.202a1.22 1.22 0 0 1 1.218-1.218h3.383a1.22 1.22 0 0 1 1.218 1.218v15.254h-5.819z" fill="#816965"/><path d="M26.105 44.456h-1.441V29.617c0-.502-.411-.913-.913-.913h-2.552c-.504 0-.913.409-.913.913v14.839h-1.441V28.664a1.4 1.4 0 0 1 1.401-1.401h4.458a1.4 1.4 0 0 1 1.401 1.401v15.792h0z" fill="#503837"/><path d="M21.443 34.366c.363 0 .657-.294.657-.657s-.294-.657-.657-.657-.657.294-.657.657.294.657.657.657z" fill="#fff"/><path d="M36.437 40.612H8.512v3.844h27.924v-3.844z" fill="#654e48"/><path d="M8.207 42.954c0 .531-.1 1.037-.284 1.502H.284C.1 43.991 0 43.484 0 42.954c0-.517.095-1.011.27-1.465.59-1.543 2.084-2.638 3.834-2.638s3.244 1.095 3.834 2.638c.174.455.269.949.269 1.465z" fill="url(#N)"/><path d="M10.853 43.367c0 .385-.073.752-.206 1.09H5.105c-.133-.337-.206-.705-.206-1.09a2.96 2.96 0 0 1 .196-1.063c.428-1.119 1.512-1.914 2.781-1.914s2.353.794 2.781 1.914c.126.33.195.688.195 1.063z" fill="url(#O)"/><path d="M44.946 42.705c0 .618-.117 1.209-.331 1.751H35.71a4.77 4.77 0 0 1-.331-1.751 4.76 4.76 0 0 1 .314-1.708c.688-1.799 2.429-3.075 4.469-3.075s3.781 1.276 4.469 3.075a4.76 4.76 0 0 1 .314 1.708z" fill="url(#P)"/><path d="M36.436 20.394v14.882L18.474 17.314a1.21 1.21 0 0 1-.59-1.038v-3.375c0-2.529 2.059-4.587 4.588-4.587a4.58 4.58 0 0 1 3.442 1.559l10.521 10.521z" fill="url(#Q)"/><path d="M34.389 18.946H10.918c-.56 0-1.015.455-1.015 1.015v4.506h.705v-4.506a.31.31 0 0 1 .31-.31h1.404v4.816h.705v-4.816h2.094v4.816h.705v-4.816h2.095v4.816h.705v-4.816h2.094v4.816h.705v-4.816h2.095v4.816h.705v-4.816h2.095v4.816h.705v-4.816h2.094v4.816h.705v-4.816h2.095v4.816h.705v-4.816h1.766a.31.31 0 0 1 .31.31v4.506h.705v-4.506c0-.56-.455-1.015-1.015-1.015z" fill="#654e48"/><path d="M37.015 23.736v2.26a.61.61 0 0 1-.608.608H8.539a.61.61 0 0 1-.608-.608v-2.26a.61.61 0 0 1 .608-.608h27.867a.61.61 0 0 1 .608.608z" fill="url(#R)"/><path d="M41.435 18.825L23.406.789c-.514-.514-1.347-.514-1.861 0L3.51 18.823a.86.86 0 0 0 0 1.218l.769.768a.86.86 0 0 0 1.217 0L22.23 4.076c.135-.135.355-.135.49 0l16.729 16.735a.86.86 0 0 0 1.218 0l.768-.768a.86.86 0 0 0 0-1.217z" fill="url(#S)"/><path d="M23.406.789a1.31 1.31 0 0 0-.93-.385v3.571c.089 0 .177.034.245.101l16.729 16.735a.86.86 0 0 0 1.218 0l.769-.769a.86.86 0 0 0 0-1.218L23.406.789z" fill="url(#T)"/><path d="M25.847 16.757h-6.748a.48.48 0 0 1-.482-.482v-3.374c0-2.129 1.726-3.856 3.855-3.856s3.856 1.726 3.856 3.856v3.374a.48.48 0 0 1-.482.482z" fill="#654e48"/><path d="M22.473 8.314c-2.53 0-4.587 2.058-4.587 4.587v3.374c0 .669.544 1.214 1.214 1.214h6.748c.669 0 1.214-.544 1.214-1.214v-3.374c0-2.53-2.058-4.587-4.588-4.587zm3.098 4.197h-2.366V9.865a3.13 3.13 0 0 1 2.366 2.646zm-3.83-2.646v2.646h-2.366a3.13 3.13 0 0 1 2.366-2.646zm-2.391 4.11h2.391v2.05h-2.391v-2.05zm3.856 2.05v-2.05h2.391v2.05h-2.391z" fill="#fff"/><defs><linearGradient id="A" x1="2.245" y1="2.82" x2="19.536" y2="8.836" xlink:href="#V"><stop stop-color="#e2edf2"/><stop offset="1" stop-color="#9fc7e2"/></linearGradient><linearGradient id="B" x1="3.908" y1="1.304" x2="6.454" y2="2.19" xlink:href="#V"><stop stop-color="#e2edf2"/><stop offset="1" stop-color="#9fc7e2"/></linearGradient><linearGradient id="C" x1="9.902" y1="9.613" x2="11.679" y2="11.389" xlink:href="#V"><stop stop-color="#816965"/><stop offset="1" stop-color="#654e48"/></linearGradient><linearGradient id="D" x1="6.698" y1="32.605" x2="6.698" y2="44.657" xlink:href="#V"><stop stop-color="#ffe7a5"/><stop offset=".966" stop-color="#ffbf5c"/></linearGradient><linearGradient id="E" x1="6.594" y1="29.483" x2="6.594" y2="33.867" xlink:href="#V"><stop stop-color="#ff5d00"/><stop offset="1" stop-color="#d54003"/></linearGradient><linearGradient id="F" x1="38.247" y1="32.605" x2="38.247" y2="44.657" xlink:href="#V"><stop stop-color="#ffe7a5"/><stop offset=".966" stop-color="#ffbf5c"/></linearGradient><linearGradient id="G" x1="38" y1="42.072" x2="27.038" y2="32.303" xlink:href="#V"><stop stop-color="#ff5d00" stop-opacity="0"/><stop offset="1" stop-color="#d54003"/></linearGradient><linearGradient id="H" x1="38.351" y1="29.483" x2="38.351" y2="33.867" xlink:href="#V"><stop stop-color="#ff5d00"/><stop offset="1" stop-color="#d54003"/></linearGradient><linearGradient id="I" x1="22.474" y1="23.863" x2="22.474" y2="53.429" xlink:href="#V"><stop stop-color="#ffe7a5"/><stop offset=".966" stop-color="#ffbf5c"/><stop offset="1" stop-color="#db9e36"/></linearGradient><linearGradient id="J" x1="19.457" y1="14.164" x2="11.374" y2="6.081" xlink:href="#V"><stop stop-color="#ff5d00" stop-opacity="0"/><stop offset="1" stop-color="#d54003"/></linearGradient><linearGradient id="K" x1="23.525" y1="31.631" x2="20.362" y2="11.999" xlink:href="#V"><stop stop-color="#ff5d00" stop-opacity="0"/><stop offset="1" stop-color="#d54003"/></linearGradient><linearGradient id="L" x1="19.227" y1="38.361" x2="6.63" y2="25.764" xlink:href="#V"><stop stop-color="#ff5d00" stop-opacity="0"/><stop offset="1" stop-color="#d54003"/></linearGradient><linearGradient id="M" x1="34.699" y1="36.292" x2="26.634" y2="28.226" xlink:href="#V"><stop stop-color="#ff5d00" stop-opacity="0"/><stop offset="1" stop-color="#d54003"/></linearGradient><linearGradient id="N" x1="1.789" y1="40.4" x2="6.853" y2="45.462" xlink:href="#V"><stop stop-color="#9eb644"/><stop offset="1" stop-color="#738611"/></linearGradient><linearGradient id="O" x1="6.197" y1="41.513" x2="9.87" y2="45.186" xlink:href="#V"><stop stop-color="#9eb644"/><stop offset="1" stop-color="#738611"/></linearGradient><linearGradient id="P" x1="37.464" y1="39.727" x2="43.366" y2="45.63" xlink:href="#V"><stop stop-color="#9eb644"/><stop offset="1" stop-color="#738611"/></linearGradient><linearGradient id="Q" x1="28.888" y1="20.307" x2="15.975" y2="7.393" xlink:href="#V"><stop stop-color="#ff5d00" stop-opacity="0"/><stop offset="1" stop-color="#d54003"/></linearGradient><linearGradient id="R" x1="22.472" y1="23.498" x2="22.472" y2="28.11" xlink:href="#V"><stop stop-color="#ff5d00"/><stop offset="1" stop-color="#d54003"/></linearGradient><linearGradient id="S" x1="22.472" y1="12.603" x2="22.472" y2="28.263" xlink:href="#V"><stop stop-color="#ff5d00"/><stop offset="1" stop-color="#d54003"/></linearGradient><linearGradient id="T" x1="35.941" y1="15.384" x2="26.476" y2="5.919" xlink:href="#V"><stop stop-color="#ff5d00" stop-opacity="0"/><stop offset="1" stop-color="#d54003"/></linearGradient><path id="U" d="M15.965 36.439h-4.355c-.275 0-.497-.223-.497-.497v-6.041c0-.275.223-.497.497-.497h4.355c.275 0 .497.223.497.497v6.041c0 .275-.223.497-.497.497z"/><linearGradient id="V" gradientUnits="userSpaceOnUse"/></defs></svg>
